X: 7
T: Esperans
T: for three
C: 
C: 
P: AAA BBB CDEFG
N: 
K: C major
M: 6/8
L: 1/8
P: A (3x)
"^Drone: C"F2F FG2 | ED2 C2C | F2F FG2 | ED2 C2C | F2E F2G | A2A A3 | \
M: 9/8
D3 G2F GA2 | \
M: 6/8
"^           (3)"G6 :: 
P: B (3x)
c2c A2A | c2c d3 | c2B AA2 | G6 "^(3)":| \
P: C
F2F G2E | D6 | \
M: 9/8
P: D
A3 G2E F3 | \
M: 6/8
G6 | 
M: 9/8
P: E
A3 A3 A3 | \
M: 6/8
G6 || \
P: F
A3 F3 | G3 A3 | \
M: 9/8
_B3 G3 F3 | \
M: 6/8
P: G
G3 A3 | GF2 DE2 | D6 |] 

